X:168
T:Maggie's pancakes
T:The rainbow tune
R:Reel
C:Stuart Morison
D:Tannahill Weavers, "Dancing Feet"
S:Various web abc's
Z:Transcription:??, minor arr., chords:Mike Long
M:C|
L:1/8
K:D
"Bm"fB~B2 fgfe|"G"dBAB GBdB|"A"cAAd AAec|"G"AfdB "A"ecAe|\
"Bm"fB~B2 fgfe|
"G"dBAB GBdB|"A"cABc "G"ABce|"A"afec "Bm"B2de:|\
|:"Bm"~f2dB "G"GBdB|"A"caec "Bm"dB~B2|
"Bm"~f2dB "G"GBdB|"A"caec "Bm"Bcde|\
"Bm"fd~d2 fgfe|"G"dBAB GBdB|"A"cAdA eAce|"A"afec "Bm"B2de:|
